!! 00000] TT[WS
!!!OTL: Shaliang diao
!!!ARE: Asia, China, Shanxi Wuzhai
!! Ethnic Group: Han
!! WII, 179 (2)
!!!SCT: J0673
!!!YEM: Copyright 1995, estate of Helmut Schaffrath.
**kern
*ICvox
*Ivox
*M2/4
*k[f#c#g#]
*A:
{8.b
16cc#
4b
=1
8a
8b
8cc#
8ee
=2
4b
4f#
=3
8cc#
8ee
8ff#
8aa
=4
8ee
8cc#
8ee
16b
16a
=5
2f#}
=6
{8.b
16cc#
8a
8b
=7
8cc#
4cc#
8cc#
=8
8c#
4c#
8e
=9
8f#
8f#
8b
8b
=10
8a
8f#
8a
8c#
=11
2B}
==
!!!AGN: Xiaodiao. Fengsuge
!!!ONB: ESAC (Essen Associative Code) Database: CHINA
!!!AMT: simple duple
!!!AIN: vox
!!!EED: Helmut Schaffrath
!!!EEV: 1.0
*-
